X:31
T:Young May Moon. RHu.031
S:R.Hughes MS,1823,Whitchurch,Shrops.
A:Whitchurch, Shropshire
Z:Neil Brookes 2006
M:6/8
L:1/8
Q:3/8=120
R:Jig
K:G
d|g2gg2d|e2dd2d|g2gaga|b2g gab|!
c’2c’b2b|abg fed|edc Bcd|e2dd2::!
d|g2dg2d|e2dd2d|g2g abc’|b2g gab|!
c’2c’ b2b|abg fed|edc Bcd|e2dd2:|

